!! 00000] TT[WS
!!!OTL: Ganxie gongchandang
!!!ARE: Asia, China, Shanxi Zuoquan
!! Ethnic Group: Han
!! WII, 258 (1)
!!!SCT: J0784
!!!YEM: Copyright 1995, estate of Helmut Schaffrath.
**kern
*ICvox
*Ivox
*M2/4
*k[b-]
*F:
{8cc
8cc
8a
8ff
=1
8dd
8cc
4a
=2
8ff
8dd
8cc
8dd
=3
8f
8d
4f}
=4
{8a
4cc
8ff
=5
8dd
8cc
8.f
16g
=6
8cc
8a
8g
8f
=7
2c}
=8
{8a
4cc
8ff
=9
8dd
8cc
8.f
16g
=10
8cc
8a
8g
8f
=11
2c}
==
!!!AGN: Xiaodiao. XÅshi, Xinminge
!!!ONB: ESAC (Essen Associative Code) Database: CHINA
!!!AMT: simple duple
!!!AIN: vox
!!!EED: Helmut Schaffrath
!!!EEV: 1.0
*-
